src/assets/duotone/Award.svg

<svg width="24" height="24" viewBox="0 0 24 24"  xmlns="http://www.w3.org/2000/svg">
<path opacity="0.4" d="M17.9501 7.7101L17.8101 7.6301L16.4201 6.8301L13.5501 5.1701C12.6701 4.6601 11.3301 4.6601 10.4501 5.1701L7.5801 6.8301L6.1901 7.6401L6.0101 7.7401C4.2201 8.9401 4.1001 9.1601 4.1001 11.0901V15.7001C4.1001 17.6301 4.2201 17.8501 6.0501 19.0801L10.4501 21.6201C10.8901 21.8801 11.4401 22.0001 12.0001 22.0001C12.5501 22.0001 13.1101 21.8801 13.5501 21.6201L17.9901 19.0501C19.7801 17.8501 19.9001 17.6301 19.9001 15.7001V11.0901C19.9001 9.1601 19.7801 8.9401 17.9501 7.7101Z" />
<path d="M6.18994 7.64L7.57994 6.83L10.3199 5.25L10.4499 5.17C11.3299 4.66 12.6699 4.66 13.5499 5.17L13.6799 5.25L16.4199 6.83L17.8099 7.63V5.49C17.8099 3.24 16.5699 2 14.3199 2H9.66994C7.41994 2 6.18994 3.24 6.18994 5.49V7.64Z" />
<path d="M14.8402 13.3398L14.2202 14.0998C14.1202 14.2098 14.0502 14.4298 14.0602 14.5798L14.1202 15.5598C14.1602 16.1598 13.7302 16.4698 13.1702 16.2498L12.2602 15.8898C12.1202 15.8398 11.8802 15.8398 11.7402 15.8898L10.8302 16.2498C10.2702 16.4698 9.84024 16.1598 9.88024 15.5598L9.94023 14.5798C9.95023 14.4298 9.88023 14.2098 9.78023 14.0998L9.16023 13.3398C8.77024 12.8798 8.94024 12.3698 9.52024 12.2198L10.4702 11.9798C10.6202 11.9398 10.8002 11.7998 10.8802 11.6698L11.4102 10.8498C11.7402 10.3398 12.2602 10.3398 12.5902 10.8498L13.1202 11.6698C13.2002 11.7998 13.3802 11.9398 13.5302 11.9798L14.4802 12.2198C15.0602 12.3698 15.2302 12.8798 14.8402 13.3398Z" />
</svg>

<?xml version="1.0" encoding="UTF-8"?>
<svg width="24" height="24" viewBox="0 0 24 24" xmlns="http://www.w3.org/2000/svg">
 <path d="m17.95 7.7101-0.14-0.08-1.39-0.8-2.87-1.66c-0.88-0.51-2.22-0.51-3.1 0l-2.87 1.66-1.39 0.81-0.18 0.1c-1.79 1.2-1.91 1.42-1.91 3.35v4.61c0 1.93 0.12 2.15 1.95 3.38l4.4 2.54c0.44 0.26 0.99 0.38 1.55 0.38 0.55 0 1.11-0.12 1.55-0.38l4.44-2.57c1.79-1.2 1.91-1.42 1.91-3.35v-4.61c0-1.93-0.12-2.15-1.95-3.38z" opacity=".4"/>
 <path d="m6.1899 7.64 1.39-0.81 2.74-1.58 0.13-0.08c0.88-0.51 2.22-0.51 3.1 0l0.13 0.08 2.74 1.58 1.39 0.8v-2.14c0-2.25-1.24-3.49-3.49-3.49h-4.65c-2.25 0-3.48 1.24-3.48 3.49v2.15z"/>
 <path d="m14.84 13.34-0.62 0.76c-0.1 0.11-0.17 0.33-0.16 0.48l0.06 0.98c0.04 0.6-0.39 0.91-0.95 0.69l-0.91-0.36c-0.14-0.05-0.38-0.05-0.52 0l-0.91 0.36c-0.56 0.22-0.98996-0.09-0.94996-0.69l0.05999-0.98c0.01-0.15-0.06-0.37-0.16-0.48l-0.62-0.76c-0.38999-0.46-0.21999-0.97 0.36001-1.12l0.94996-0.24c0.15-0.04 0.33-0.18 0.41-0.31l0.53-0.82c0.33-0.51 0.85-0.51 1.18 0l0.53 0.82c0.08 0.13 0.26 0.27 0.41 0.31l0.95 0.24c0.58 0.15 0.75 0.66 0.36 1.12z"/>
</svg>
